Dominus_Dark_Funeral/scalable/apps/darktable.svg

<?xml version="1.0" encoding="UTF-8" standalone="no"?><svg xmlns:dc="http://purl.org/dc/elements/1.1/" xmlns:cc="http://creativecommons.org/ns#" xmlns:rdf="http://www.w3.org/1999/02/22-rdf-syntax-ns#" xmlns="http://www.w3.org/2000/svg" xmlns:xlink="http://www.w3.org/1999/xlink" width="48" height="48" viewBox="0 0 12.7 12.7"><metadata><rdf:RDF><cc:Work><dc:format>image/svg+xml</dc:format><dc:type rdf:resource="http://purl.org/dc/dcmitype/StillImage"/><dc:title/></cc:Work></rdf:RDF></metadata><defs><linearGradient id="g"><stop offset="0" stop-color="#6f8a91"/><stop offset="1" stop-color="#36475c"/></linearGradient><linearGradient id="f"><stop offset="0" stop-color="#e9ddaf"/><stop offset="1" stop-color="#d9b009"/></linearGradient><linearGradient id="e"><stop offset="0" stop-color="#fca"/><stop offset="1" stop-color="#d46b1d"/></linearGradient><linearGradient id="d"><stop offset="0" stop-color="#c1273c"/><stop offset="1" stop-color="#faa"/></linearGradient><linearGradient id="c"><stop offset="0" stop-color="#bf33c7"/><stop offset="1" stop-color="#e9afdd"/></linearGradient><linearGradient id="b"><stop offset="0" stop-color="#276ee9"/><stop offset="1" stop-color="#afdde9"/></linearGradient><linearGradient id="a"><stop offset="0" stop-color="#afe9c6"/><stop offset="1" stop-color="#269b3a"/></linearGradient><linearGradient xlink:href="#a" id="m" x1="7.34" y1="8.48" x2="9.72" y2="9.42" gradientUnits="userSpaceOnUse"/><linearGradient xlink:href="#b" id="n" x1="3.69" y1="10.46" x2="7.06" y2="7.4" gradientUnits="userSpaceOnUse"/><linearGradient xlink:href="#c" id="k" x1="1.6" y1="6.92" x2="4.88" y2="6.96" gradientUnits="userSpaceOnUse"/><linearGradient xlink:href="#d" id="i" x1="2.34" y1="1.17" x2="4.16" y2="4.85" gradientUnits="userSpaceOnUse"/><linearGradient xlink:href="#e" id="j" x1="5.64" y1="3.18" x2="8.97" y2=".44" gradientUnits="userSpaceOnUse"/><linearGradient xlink:href="#f" id="l" x1="7.82" y1="3.63" x2="11.67" y2="4.57" gradientUnits="userSpaceOnUse"/><radialGradient xlink:href="#g" id="h" cx="6.32" cy="5.45" fx="6.32" fy="5.45" r="5.35" gradientTransform="matrix(1 0 0 1.17062 0 -1.08)" gradientUnits="userSpaceOnUse"/></defs><path d="M6.35.1C4.81.1 3.57.39 2.66.97A3.67 3.67 0 0 0 1 4.22c0 1.91 1.54 4.47 2.01 5.2.54.85 1.13 1.61 1.65 2.16.68.7 1.21 1.03 1.69 1.03s1.01-.33 1.69-1.03a15.2 15.2 0 0 0 1.65-2.15c.47-.74 2-3.3 2-5.21 0-1.42-.57-2.54-1.65-3.25A6.74 6.74 0 0 0 6.35.1z" fill="url(#h)"/><path d="M5.4.14a5.9 5.9 0 0 0-2.75.82 3.67 3.67 0 0 0-1.15 1.23l2.66 2.66z" style="marker:none" color="#000" overflow="visible" fill="url(#i)"/><path d="M10.89 1.77c-.05-.07-.08-.14-.14-.2A3.69 3.69 0 0 0 9.44.66 6.75 6.75 0 0 0 7.49.12C7.27.09 7.05.09 6.83.09l-.37.03-.82 3.06z" style="marker:none" color="#000" overflow="visible" fill="url(#j)"/><path d="M1.1 3.2a3.67 3.67 0 0 0-.04.13 3.67 3.67 0 0 0-.05.36 3.67 3.67 0 0 0-.01.37 3.67 3.67 0 0 0 0 .15c0 .48.1 1 .25 1.52s.36 1.04.58 1.52l.25.46 2.8-.75z" style="marker:none" color="#000" overflow="visible" fill="url(#k)"/><path d="M11.03 6.82c.15-.36.3-.72.41-1.1a4.63 4.63 0 0 0 .14-2.52c-.04-.19-.12-.36-.19-.54l-3.57.97z" style="marker:none" color="#000" overflow="visible" fill="url(#l)"/><path d="M6.74 12.47c.12-.04.24-.04.38-.12.28-.17.58-.43.92-.78a15.2 15.2 0 0 0 2.54-3.8L8.54 5.74z" style="marker:none" color="#000" overflow="visible" fill="url(#m)"/><path d="M2.56 8.61c.15.26.36.68.45.82.54.85 1.13 1.61 1.65 2.16.34.35.64.6.92.78.05.03.1.02.15.05L7.06 7.4z" style="marker:none" color="#000" overflow="visible" fill="url(#n)"/><path d="M9.75.8a3.83 3.83 0 0 1 1.63 3.32c0 2-1.6 4.66-2.09 5.43-.56.87-1.17 1.67-1.72 2.24-.31.33-.6.57-.86.75a3.5 3.5 0 0 0 1.32-.97 15.2 15.2 0 0 0 1.65-2.15c.47-.74 2-3.3 2-5.21A3.67 3.67 0 0 0 9.75.81zM2.94.81l-.28.16A3.67 3.67 0 0 0 1 4.22c0 1.91 1.54 4.47 2.01 5.2.54.85 1.13 1.61 1.65 2.16.5.53.93.84 1.32.97a5.26 5.26 0 0 1-.86-.75A15.02 15.02 0 0 1 3.4 9.56c-.5-.77-2.1-3.44-2.1-5.43 0-1.44.57-2.58 1.64-3.32z" opacity=".2"/><circle r="1.29" cy="5.29" cx="6.35" fill="#fff"/></svg>

<?xml version="1.0" encoding="UTF-8" standalone="no"?>
<svg
   xmlns:dc="http://purl.org/dc/elements/1.1/"
   xmlns:cc="http://creativecommons.org/ns#"
   xmlns:rdf="http://www.w3.org/1999/02/22-rdf-syntax-ns#"
   xmlns:svg="http://www.w3.org/2000/svg"
   xmlns="http://www.w3.org/2000/svg"
   xmlns:xlink="http://www.w3.org/1999/xlink"
   xmlns:sodipodi="http://sodipodi.sourceforge.net/DTD/sodipodi-0.dtd"
   xmlns:inkscape="http://www.inkscape.org/namespaces/inkscape"
   width="48"
   height="48"
   viewBox="0 0 12.7 12.7"
   version="1.1"
   id="svg66"
   sodipodi:docname="darktable.svg"
   inkscape:version="0.92.4 (5da689c313, 2019-01-14)">
  <sodipodi:namedview
     pagecolor="#ffffff"
     bordercolor="#666666"
     borderopacity="1"
     objecttolerance="10"
     gridtolerance="10"
     guidetolerance="10"
     inkscape:pageopacity="0"
     inkscape:pageshadow="2"
     inkscape:window-width="1112"
     inkscape:window-height="480"
     id="namedview68"
     showgrid="false"
     inkscape:zoom="4.9166667"
     inkscape:cx="2.1355932"
     inkscape:cy="24"
     inkscape:window-x="0"
     inkscape:window-y="25"
     inkscape:window-maximized="0"
     inkscape:current-layer="svg66" />
  <metadata
     id="metadata2">
    <rdf:RDF>
      <cc:Work>
        <dc:format>image/svg+xml</dc:format>
        <dc:type
           rdf:resource="http://purl.org/dc/dcmitype/StillImage" />
        <dc:title></dc:title>
      </cc:Work>
    </rdf:RDF>
  </metadata>
  <defs
     id="defs46">
    <linearGradient
       id="g">
      <stop
         offset="0"
         stop-color="#6f8a91"
         id="stop4" />
      <stop
         offset="1"
         stop-color="#36475c"
         id="stop6" />
    </linearGradient>
    <linearGradient
       id="f">
      <stop
         offset="0"
         stop-color="#e9ddaf"
         id="stop9" />
      <stop
         offset="1"
         stop-color="#d9b009"
         id="stop11" />
    </linearGradient>
    <linearGradient
       id="e">
      <stop
         offset="0"
         stop-color="#fca"
         id="stop14" />
      <stop
         offset="1"
         stop-color="#d46b1d"
         id="stop16" />
    </linearGradient>
    <linearGradient
       id="d">
      <stop
         offset="0"
         stop-color="#c1273c"
         id="stop19" />
      <stop
         offset="1"
         stop-color="#faa"
         id="stop21" />
    </linearGradient>
    <linearGradient
       id="c">
      <stop
         offset="0"
         stop-color="#bf33c7"
         id="stop24" />
      <stop
         offset="1"
         stop-color="#e9afdd"
         id="stop26" />
    </linearGradient>
    <linearGradient
       id="b">
      <stop
         offset="0"
         stop-color="#276ee9"
         id="stop29" />
      <stop
         offset="1"
         stop-color="#afdde9"
         id="stop31" />
    </linearGradient>
    <linearGradient
       id="a">
      <stop
         offset="0"
         stop-color="#afe9c6"
         id="stop34" />
      <stop
         offset="1"
         stop-color="#269b3a"
         id="stop36" />
    </linearGradient>
    <linearGradient
       xlink:href="#a"
       id="m"
       x1="7.34"
       y1="8.48"
       x2="9.72"
       y2="9.42"
       gradientUnits="userSpaceOnUse" />
    <linearGradient
       xlink:href="#b"
       id="n"
       x1="3.69"
       y1="10.46"
       x2="7.06"
       y2="7.4"
       gradientUnits="userSpaceOnUse" />
    <linearGradient
       xlink:href="#c"
       id="k"
       x1="1.6"
       y1="6.92"
       x2="4.88"
       y2="6.96"
       gradientUnits="userSpaceOnUse" />
    <linearGradient
       xlink:href="#d"
       id="i"
       x1="2.34"
       y1="1.17"
       x2="4.16"
       y2="4.85"
       gradientUnits="userSpaceOnUse" />
    <linearGradient
       xlink:href="#e"
       id="j"
       x1="5.64"
       y1="3.18"
       x2="8.97"
       y2=".44"
       gradientUnits="userSpaceOnUse" />
    <linearGradient
       xlink:href="#f"
       id="l"
       x1="7.82"
       y1="3.63"
       x2="11.67"
       y2="4.57"
       gradientUnits="userSpaceOnUse" />
    <radialGradient
       xlink:href="#g"
       id="h"
       cx="6.32"
       cy="5.45"
       fx="6.32"
       fy="5.45"
       r="5.35"
       gradientTransform="matrix(1,0,0,1.17062,0,-1.08)"
       gradientUnits="userSpaceOnUse" />
  </defs>
  <path
     d="M 6.35,0.1 C 4.81,0.1 3.57,0.39 2.66,0.97 A 3.67,3.67 0 0 0 1,4.22 c 0,1.91 1.54,4.47 2.01,5.2 0.54,0.85 1.13,1.61 1.65,2.16 0.68,0.7 1.21,1.03 1.69,1.03 0.48,0 1.01,-0.33 1.69,-1.03 A 15.2,15.2 0 0 0 9.69,9.43 c 0.47,-0.74 2,-3.3 2,-5.21 0,-1.42 -0.57,-2.54 -1.65,-3.25 A 6.74,6.74 0 0 0 6.35,0.1 Z"
     id="path48"
     style="fill:url(#h)"
     inkscape:connector-curvature="0" />
  <path
     d="M 5.4,0.14 A 5.9,5.9 0 0 0 2.65,0.96 3.67,3.67 0 0 0 1.5,2.19 l 2.66,2.66 z"
     style="color:#000000;overflow:visible;fill:url(#i);marker:none"
     overflow="visible"
     id="path50"
     inkscape:connector-curvature="0" />
  <path
     d="M 10.89,1.77 C 10.84,1.7 10.81,1.63 10.75,1.57 A 3.69,3.69 0 0 0 9.44,0.66 6.75,6.75 0 0 0 7.49,0.12 C 7.27,0.09 7.05,0.09 6.83,0.09 L 6.46,0.12 5.64,3.18 Z"
     style="color:#000000;overflow:visible;fill:url(#j);marker:none"
     overflow="visible"
     id="path52"
     inkscape:connector-curvature="0" />
  <path
     d="M 1.1,3.2 A 3.67,3.67 0 0 0 1.06,3.33 3.67,3.67 0 0 0 1.01,3.69 3.67,3.67 0 0 0 1,4.06 3.67,3.67 0 0 0 1,4.21 c 0,0.48 0.1,1 0.25,1.52 0.15,0.52 0.36,1.04 0.58,1.52 l 0.25,0.46 2.8,-0.75 z"
     style="color:#000000;overflow:visible;fill:url(#k);marker:none"
     overflow="visible"
     id="path54"
     inkscape:connector-curvature="0" />
  <path
     d="m 11.03,6.82 c 0.15,-0.36 0.3,-0.72 0.41,-1.1 A 4.63,4.63 0 0 0 11.58,3.2 C 11.54,3.01 11.46,2.84 11.39,2.66 L 7.82,3.63 Z"
     style="color:#000000;overflow:visible;fill:url(#l);marker:none"
     overflow="visible"
     id="path56"
     inkscape:connector-curvature="0" />
  <path
     d="M 6.74,12.47 C 6.86,12.43 6.98,12.43 7.12,12.35 7.4,12.18 7.7,11.92 8.04,11.57 a 15.2,15.2 0 0 0 2.54,-3.8 L 8.54,5.74 Z"
     style="color:#000000;overflow:visible;fill:url(#m);marker:none"
     overflow="visible"
     id="path58"
     inkscape:connector-curvature="0" />
  <path
     d="m 2.56,8.61 c 0.15,0.26 0.36,0.68 0.45,0.82 0.54,0.85 1.13,1.61 1.65,2.16 0.34,0.35 0.64,0.6 0.92,0.78 0.05,0.03 0.1,0.02 0.15,0.05 L 7.06,7.4 Z"
     style="color:#000000;overflow:visible;fill:url(#n);marker:none"
     overflow="visible"
     id="path60"
     inkscape:connector-curvature="0" />
  <path
     d="m 9.75,0.8 a 3.83,3.83 0 0 1 1.63,3.32 c 0,2 -1.6,4.66 -2.09,5.43 -0.56,0.87 -1.17,1.67 -1.72,2.24 -0.31,0.33 -0.6,0.57 -0.86,0.75 A 3.5,3.5 0 0 0 8.03,11.57 15.2,15.2 0 0 0 9.68,9.42 c 0.47,-0.74 2,-3.3 2,-5.21 A 3.67,3.67 0 0 0 9.75,0.81 Z M 2.94,0.81 2.66,0.97 A 3.67,3.67 0 0 0 1,4.22 c 0,1.91 1.54,4.47 2.01,5.2 0.54,0.85 1.13,1.61 1.65,2.16 0.5,0.53 0.93,0.84 1.32,0.97 A 5.26,5.26 0 0 1 5.12,11.8 15.02,15.02 0 0 1 3.4,9.56 C 2.9,8.79 1.3,6.12 1.3,4.13 1.3,2.69 1.87,1.55 2.94,0.81 Z"
     id="path62"
     inkscape:connector-curvature="0"
     style="opacity:0.2" />
  <circle
     r="1.29"
     cy="5.29"
     cx="6.3499999"
     id="circle64"
     style="fill:#ffffff" />
</svg>
